public/socketio.svg

<?xml version="1.0" encoding="UTF-8" standalone="no" ?>
<svg width="256px" height="256px" viewBox="0 0 256 256" version="1.1" xmlns="http://www.w3.org/2000/svg" xmlns:xlink="http://www.w3.org/1999/xlink" preserveAspectRatio="xMidYMid">
    <g>
        <path d="M96.4465116,7.38232558 C128.714419,-0.893023256 164.375814,3.92930233 192.833488,21.492093 C228.673488,42.9246512 252.070698,83.467907 252.666047,125.20186 C253.975814,167.352558 232.007442,209.146047 196.703256,232.066977 C157.410233,258.500465 103.054884,259.512558 62.9283721,234.388837 C22.027907,209.979535 -1.8455814,160.744186 4.28651163,113.473488 C9.22790698,63.5237209 47.8065116,19.467907 96.4465116,7.38232558 L96.4465116,7.38232558 L96.4465116,7.38232558 Z" fill="#010101"></path>
        <path d="M91.5051163,27.8027907 C152.468837,3.39348837 227.244651,48.4613953 233.555349,113.830698 C243.378605,172.651163 194.56,232.424186 134.965581,234.150698 C78.2883721,239.806512 23.5162791,191.76186 21.9088372,134.846512 C17.6818605,88.7665116 48.0446512,43.0437209 91.5051163,27.8027907 L91.5051163,27.8027907 L91.5051163,27.8027907 Z" fill="#FFFFFF"></path>
        <path d="M97.6372093,121.689302 C124.963721,99.3637209 151.694884,76.264186 179.616744,54.5934884 C164.971163,77.0976744 149.908837,99.304186 135.263256,121.808372 C122.701395,121.867907 110.139535,121.867907 97.6372093,121.689302 L97.6372093,121.689302 L97.6372093,121.689302 Z" fill="#010101"></path>
        <path d="M120.736744,134.132093 C133.35814,134.132093 145.92,134.132093 158.48186,134.310698 C130.976744,156.517209 104.364651,179.795349 76.3832558,201.406512 C91.0288372,178.902326 106.091163,156.636279 120.736744,134.132093 L120.736744,134.132093 L120.736744,134.132093 Z" fill="#010101"></path>
    </g>
</svg>

<svg xmlns="http://www.w3.org/2000/svg" preserveAspectRatio="xMidYMid" viewBox="0 0 256 256"><path fill="#010101" d="M96.447 7.382c32.267-8.275 67.929-3.453 96.386 14.11 35.84 21.433 59.238 61.976 59.833 103.71 1.31 42.15-20.659 83.944-55.963 106.865-39.293 26.433-93.648 27.446-133.775 2.322-40.9-24.41-64.774-73.645-58.641-120.916 4.94-49.95 43.52-94.005 92.16-106.09Z"/><path fill="#FFF" d="M91.505 27.803c60.964-24.41 135.74 20.658 142.05 86.028 9.824 58.82-38.995 118.593-98.59 120.32-56.677 5.656-111.449-42.39-113.056-99.304-4.227-46.08 26.136-91.803 69.596-107.044Z"/><path fill="#010101" d="M97.637 121.69c27.327-22.326 54.058-45.426 81.98-67.097-14.646 22.505-29.708 44.711-44.354 67.215-12.562.06-25.123.06-37.626-.119ZM120.737 134.132c12.621 0 25.183 0 37.745.179-27.505 22.206-54.117 45.484-82.099 67.096 14.646-22.505 29.708-44.77 44.354-67.275Z"/></svg>
